workspaces/client/public/images/svg/login.svg

<svg width="24" height="24" viewBox="0 0 24 24" fill="none" xmlns="http://www.w3.org/2000/svg">
<path fill-rule="evenodd" clip-rule="evenodd" d="M10.845 8.09507C10.7045 8.2357 10.6257 8.42632 10.6257 8.62507C10.6257 8.82382 10.7045 9.01445 10.845 9.15507L12.565 10.8751H4.375C4.17609 10.8751 3.98532 10.9541 3.84467 11.0947C3.70402 11.2354 3.625 11.4262 3.625 11.6251C3.625 11.824 3.70402 12.0148 3.84467 12.1554C3.98532 12.2961 4.17609 12.3751 4.375 12.3751H12.565L10.845 14.0951C10.7713 14.1637 10.7122 14.2465 10.6712 14.3385C10.6302 14.4305 10.6082 14.5298 10.6064 14.6306C10.6046 14.7313 10.6232 14.8313 10.6609 14.9247C10.6986 15.0181 10.7547 15.1029 10.826 15.1741C10.8972 15.2453 10.982 15.3015 11.0754 15.3392C11.1688 15.3769 11.2688 15.3954 11.3695 15.3937C11.4702 15.3919 11.5695 15.3698 11.6615 15.3289C11.7535 15.2879 11.8363 15.2288 11.905 15.1551L14.905 12.1551C15.0455 12.0144 15.1243 11.8238 15.1243 11.6251C15.1243 11.4263 15.0455 11.2357 14.905 11.0951L11.905 8.09507C11.7644 7.95462 11.5738 7.87573 11.375 7.87573C11.1762 7.87573 10.9856 7.95462 10.845 8.09507Z" fill="white"/>
<path d="M12.375 5.877C12.375 6.325 12.649 6.717 12.966 7.034L15.966 10.034C16.1749 10.2429 16.3407 10.491 16.4537 10.764C16.5668 11.0369 16.625 11.3295 16.625 11.625C16.625 11.9205 16.5668 12.2131 16.4537 12.486C16.3407 12.759 16.1749 13.0071 15.966 13.216L12.966 16.216C12.649 16.533 12.375 16.925 12.375 17.373V19.625C14.4967 19.625 16.5316 18.7821 18.0319 17.2819C19.5321 15.7816 20.375 13.7467 20.375 11.625C20.375 9.50327 19.5321 7.46844 18.0319 5.96815C16.5316 4.46785 14.4967 3.625 12.375 3.625V5.877Z" fill="white"/>
</svg>

<svg xmlns="http://www.w3.org/2000/svg" width="24" height="24" fill="none"><path fill="#fff" fill-rule="evenodd" d="M10.845 8.095a.75.75 0 0 0 0 1.06l1.72 1.72h-8.19a.75.75 0 1 0 0 1.5h8.19l-1.72 1.72a.75.75 0 1 0 1.06 1.06l3-3a.75.75 0 0 0 0-1.06l-3-3a.75.75 0 0 0-1.06 0" clip-rule="evenodd"/><path fill="#fff" d="M12.375 5.877c0 .448.274.84.591 1.157l3 3a2.25 2.25 0 0 1 0 3.182l-3 3c-.317.317-.591.709-.591 1.157v2.252a8 8 0 0 0 0-16z"/></svg>
